svgs/sharp-light/venus-double.svg

<svg xmlns="http://www.w3.org/2000/svg" viewBox="0 0 640 512"><!--! Font Awesome Pro 6.6.0 by @fontawesome - https://fontawesome.com License - https://fontawesome.com/license (Commercial License) Copyright 2024 Fonticons, Inc. --><path d="M192 320a144 144 0 1 0 0-288 144 144 0 1 0 0 288zM368 176c0 91.8-70.3 167.2-160 175.3l0 64.7 64 0 16 0 0 32-16 0-64 0 0 48 0 16-32 0 0-16 0-48-64 0-16 0 0-32 16 0 64 0 0-64.7C86.3 343.2 16 267.8 16 176C16 78.8 94.8 0 192 0s176 78.8 176 176zM344 318c7.3-7.8 14-16.2 20-25c23.6 17 52.6 27 84 27c79.5 0 144-64.5 144-144s-64.5-144-144-144c-31.3 0-60.3 10-84 27c-6-8.9-12.7-17.2-20-25C373.1 12.6 409.1 0 448 0c97.2 0 176 78.8 176 176c0 91.8-70.3 167.2-160 175.3l0 64.7 64 0 16 0 0 32-16 0-64 0 0 48 0 16-32 0 0-16 0-48-64 0-16 0 0-32 16 0 64 0 0-64.7c-32.7-3-62.9-14.9-88-33.3z"/></svg>

<svg xmlns="http://www.w3.org/2000/svg" viewBox="0 0 640 512"><!--! Font Awesome Pro 6.4.2 by @fontawesome - https://fontawesome.com License - https://fontawesome.com/license (Commercial License) Copyright 2023 Fonticons, Inc. --><path d="M192 320a144 144 0 1 0 0-288 144 144 0 1 0 0 288zM368 176c0 91.8-70.3 167.2-160 175.3V416h64 16v32H272 208v48 16H176V496 448H112 96V416h16 64V351.3C86.3 343.2 16 267.8 16 176C16 78.8 94.8 0 192 0s176 78.8 176 176zM344 318c7.3-7.8 14-16.2 20-25c23.6 17 52.6 27 84 27c79.5 0 144-64.5 144-144s-64.5-144-144-144c-31.3 0-60.3 10-84 27c-6-8.9-12.7-17.2-20-25C373.1 12.6 409.1 0 448 0c97.2 0 176 78.8 176 176c0 91.8-70.3 167.2-160 175.3V416h64 16v32H528 464v48 16H432V496 448H368 352V416h16 64V351.3c-32.7-3-62.9-14.9-88-33.3z"/></svg>
